svg/u1f424.svg

<svg viewBox="0 0 128 128" xmlns="http://www.w3.org/2000/svg">
  <path d="M52.68,96.89c0,0,1.25,8.8-0.09,9.67c-1.31,0.84-5.54,0.26-7.79,0.66c-1.6,0.28-2.72,2.06-2.63,3.94 s2.06,3.38,4.13,3.38s6.29-0.08,8.07-0.28c2.53-0.28,4.15-1.87,4.6-3c0.94-2.35,0.28-15.02,0.28-15.02L52.68,96.89z" fill="#FC9301"/>
  <path d="M69.2,97.55l6.66-0.75c0,0,0.19,9.29,0.28,11.26c0.09,1.97,0.56,7.7-0.09,9.2 c-0.73,1.67-4.41,4.79-8.63,5.35c-4.22,0.56-8.92,0.84-9.1-2.91s2.72-3.66,3.85-3.94c1.13-0.28,5.73-1.13,6.85-2.25 C70.14,112.37,69.2,97.55,69.2,97.55z" fill="#FC9301"/>
  <path d="M17.25,43.02c0,0,1.01-8.68,1.83-11.73c1.6-5.96,8.26-18.02,27.59-18.82 c25.6-1.06,31.39,22.24,31.39,22.24s11.4,3.24,22.81,7.04s21.68,9.01,22.24,10.7c0.56,1.69-3.26,25.91-24.35,38.86 c-20.41,12.53-62.08,12.25-73.63-11.68c-5.55-11.51-4.67-18.57-5.77-25.9C18.03,44.85,17.25,43.02,17.25,43.02z" fill="#FFB903"/>
  <path d="M4.63,42.74c0.22,3.09,14.08,6.95,14.08,6.95s2.35-1.13,2.35-6.95s-2.35-7.41-2.35-7.41 S4.44,40.11,4.63,42.74z" fill="#FA9100"/>
  <ellipse cx="35.28" cy="38.56" fill="#2F302B" rx="5.33" ry="4.9" transform="matrix(0.3203 -0.9473 0.9473 0.3203 -12.5444 59.6303)"/>
  <path d="M51.93,73.14c-2.73,2.73,3.85,7.79,12.11,11.26c8.26,3.47,17.93,2.35,25.34-1.03 c7.07-3.22,13.7-13.8,12.58-18.77s-5.44-6.38-11.36-7.79c-5.91-1.41-14.83-3.57-16.8-3.85c-1.97-0.28-3.38-0.09-3.75,1.69 c-0.27,1.3,1.03,2.53,4.32,3.47c3.28,0.94,19.99,4.97,19.99,8.26c0,3.28-3.38,9.39-10.42,12.39c-6.83,2.91-13.51,3.28-20.27,0.09 c-4.17-1.97-7.6-4.79-8.45-5.35C54.37,72.96,53.25,71.83,51.93,73.14z" fill="#FC9301"/>
</svg>

<svg viewBox="0 0 128 128" xmlns="http://www.w3.org/2000/svg">
  <defs/>
  <path d="M52.68,96.89 C52.68,96.89 53.93,105.69 52.59,106.56 C51.28,107.4 47.05,106.82 44.8,107.22 C43.2,107.5 42.08,109.28 42.17,111.16 C42.26,113.04 44.23,114.54 46.3,114.54 C48.37,114.54 52.59,114.46 54.37,114.26 C56.9,113.98 58.52,112.39 58.97,111.26 C59.91,108.91 59.25,96.24 59.25,96.24 L52.68,96.89 Z" fill="#FC9301"/>
  <path d="M69.2,97.55 L75.86,96.8 C75.86,96.8 76.05,106.09 76.14,108.06 C76.23,110.03 76.7,115.76 76.05,117.26 C75.32,118.93 71.64,122.05 67.42,122.61 C63.2,123.17 58.5,123.45 58.32,119.7 C58.14,115.95 61.04,116.04 62.17,115.76 C63.3,115.48 67.9,114.63 69.02,113.51 C70.14,112.37 69.2,97.55 69.2,97.55 Z" fill="#FC9301"/>
  <path d="M17.25,43.02 C17.25,43.02 18.26,34.34 19.08,31.29 C20.68,25.33 27.34,13.27 46.67,12.47 C72.27,11.41 78.06,34.71 78.06,34.71 C78.06,34.71 89.46,37.95 100.87,41.75 C112.28,45.55 122.55,50.76 123.11,52.45 C123.67,54.14 119.85,78.36 98.76,91.31 C78.35,103.84 36.68,103.56 25.13,79.63 C19.58,68.12 20.46,61.06 19.36,53.73 C18.03,44.85 17.25,43.02 17.25,43.02 Z" fill="#FFB903"/>
  <path d="M4.63,42.74 C4.85,45.83 18.71,49.69 18.71,49.69 C18.71,49.69 21.06,48.56 21.06,42.74 C21.06,36.92 18.71,35.33 18.71,35.33 C18.71,35.33 4.44,40.11 4.63,42.74 Z" fill="#FA9100"/>
  <path d="M36.991,33.511 C39.554,34.378 40.868,37.341 39.925,40.13 C38.983,42.918 36.14,44.476 33.576,43.609 C31.013,42.743 29.699,39.779 30.642,36.991 C31.585,34.202 34.427,32.644 36.991,33.511 Z" fill="#2F302B"/>
  <path d="M51.93,73.14 C49.2,75.87 55.78,80.93 64.04,84.4 C72.3,87.87 81.97,86.75 89.38,83.37 C96.45,80.15 103.08,69.57 101.96,64.6 C100.84,59.63 96.52,58.22 90.6,56.81 C84.69,55.4 75.77,53.24 73.8,52.96 C71.83,52.68 70.42,52.87 70.05,54.65 C69.78,55.95 71.08,57.18 74.37,58.12 C77.65,59.06 94.36,63.09 94.36,66.38 C94.36,69.66 90.98,75.77 83.94,78.77 C77.11,81.68 70.43,82.05 63.67,78.86 C59.5,76.89 56.07,74.07 55.22,73.51 C54.37,72.96 53.25,71.83 51.93,73.14 Z" fill="#FC9301"/>
</svg>
